X:514
T: Wuxi jing
N: C0332
O: China,Jiangsu, Wuxi
S: III, 498]
N: sehr heiter. Einige Tiere werden hier als Menschen besungen. Heisst
N: im Norden "tan xing shui he".
N: Vor- und Nachspiel weggelassen. Eine Verzierung.
N: Pinyin-Text der ersten Strophe vorhanden!
R: Xiaodiao]
M: 2/4
L: 1/16
K: C
A2AGA2d2 | cdcAG4 | A2cccAGA | c8 |
c2c4d2 | e3de3d | c3ed2c2 | A3cG4 |
AcAGE4 | c2c4d2 | A3cG4 | AcAGE4 |
G2G2A3c | GAGED4 | E2GGGAD2 | EGEDC4

@@@ Tune index: 6515
